X: 3048
T: Be Thou My Vision
R: waltz
M: 3/4
K: Dmajor
M:2/4
L: 1/16
K: Dmaj
"D"D2 D4 ED|"G"B,2 A,4 A,B,|"D"D2 D4 "A"E2|"D"F8|
w:Be Thou my_ Vision, O_ Lord of my heart;
"A"E2 E4 E2|E2 F4 A2|"G"B2 A4 F2|"A"A8|
w:Naught be all else to me, save that Thou art,
"Bm"B2 c4 dc|"G"B2 A4 F2|"D"A2 D4 C2|"G"B,4 A,4|
w:Thou my best_ thought, by day or by night_
"D"D2 F4 A2|"Bm"B2 F4 DF|"A"E2 D4 D2|"D"D6||
w:Waking or sleeping, Thy* presence my light.

